X:1
T:6 Gesänge, Op.14
T:Volkslied
T:Robert Franz
T:6 Gesänge, Op.14
T:(Folksong)
T:4. Volkslied Ungarisch / Hungarian
T:OpenScore (CC0)
T:OpenScore (CC0)
T:OpenScore (CC0)
C:Robert Franz
Z:(Folksong)
Z:OpenScore (CC0)
%%score 1 { ( 2 5 ) | ( 3 4 ) }
L:1/8
Q:1/4=80
M:2/4
K:Eb
V:1 treble nm="Singstimme\nVoice"
V:2 treble nm="Pianoforte"
V:5 treble 
V:3 bass 
V:4 bass 
V:1
"^Andante" z4 | z!p! G3/4 A/4 G F | G2 z!<(! =A/ =B/!<)! | c G!>(! (GF/>E/)!>)! | E D3/4 D/4 C E | %5
w: |Hat- te Lieb- chen|zwei dort im|Dorf der Hai- * *|de; hatt' nicht Brod da-|
w: |Dar- lings two had|I, Yon- der,|on the heath- * *|er; Bread I could not|
 A2!<(! G B!<)! | e (d/c/)!>(! (B=A/>G/)!>)! | G2 z2 | z!p! G3/4 A/4 G F | G2 z!<(! =A/ =B/ | %10
w: bei, star- ben|al- le * Bei- * *|de.|Grub die ei- ne|ein un- ter|
w: buy, So they|died to- * geth- * *|er.|Bur- ied one a-|lone Where the|
 c!<)! G!>(! (GF/>E/)!>)! | E D3/4 D/4 C E | A2!<(! G B!<)! | e (d/c/)!>(! (B=A/>G/)!>)! | G2 z2 | %15
w: Gar- ten- blü- * *|then, und die Lieb- ste|mein mir in|Her- zens * Mit- * *|ten.|
w: ro- ses blos- * *|som, But the dear- est|one deep with-|in my * bo- * *|som.|
 z!p! G3/4 A/4 G F | G2 z!<(! =A/ =B/!<)! | c G!>(! (GF/>E/)!>)! | E D3/4 D/4 C E | %19
w: Giess' das ei- ne|Grab nun mit|Do- nau- flu- * *|then, und auf's and- re|
w: Wa- ter'd  one lone|grave From the|Da- nube riv- * *|er, On the oth- er|
 A2!<(! G B!<)! |[Q:1/4=68]"^T" e d (c!>(!d/>c/)!>)! |[Q:1/4=80]"_a tempo" c2 z2 | z4 | z4 | z4 |] %25
w: Grab lass mein|Herz ich blu- * *|ten.||||
w: grave, bleeds my|heart for ev- * *|er.||||
V:2
!p! (GFEPD/>C/ | C) z (C2 |!<(! (=B,)D!<)!!>(!GF!>)! | E)!<(! ([_B,EG]2!<)!!>(! [A,DF]!>)! | %4
 [G,E])([G,=B,D] [E,C]2) |!<(! (A2!<)! G"_cresc."B | ed/"_dim."c/ [GB][^F=A]) |!p! (G=FEPD/>C/ | %8
 C) z (C2 |!<(! =B,)(D!<)!!>(!GF!>)! |!<(! E)!<)! ([_B,EG]2!>(! [A,DF]!>)! | %11
 [G,E])([G,=B,D] [E,C]2) |!<(! (A2!<)! G"_cresc."B | ed/"_dim."c/!>(! [GB][^F=A])!>)! | %14
!p! (G=FEPD/>C/ | C) z (C2 |!<(! =B,)(D!<)!!>(!GF!>)! | %17
!>(! E)!>)!!<(! ([_B,EG]2!<)!!>(! [A,DF]!>)! | [G,E])([F,=B,D] [E,C]2) |"_cresc." ([EA]2 [_DG]2 | %20
 A"_dim."=D!<(!E!<)!!>(![=B,D]/>C/)!>)! |[K:bass]!p!!<(! (=E,!<)!G,C_B, |!>(! A,4)!>)! | %23
!<(! z2 G,!<)!=A,/!>(!=B,/ | C2-!>)! C z |] %25
V:3
 ([G,,G,][F,,F,][E,,E,][D,,D,]/>[C,,C,]/ | [C,,C,]) z (A,2 | (G,)F,E,D, | C,)(G,,/>A,,/ B,,2- | %4
 [E,,B,,])G,,/>(G,,/- [C,,G,,]2) | C2 _B,A, | G,C, D,D,, | %7
 ([G,,G,][=F,,=F,][E,,E,][D,,D,]/>[C,,C,]/ | [C,,C,]) z (A,2 | (G,)F,E,D, | C,)(G,,/>A,,/ B,,2- | %11
 [E,,B,,])G,,/>(G,,/- [C,,G,,]2) | C2 _B,A, | G,C, D,D,, | %14
 ([G,,G,][=F,,=F,][E,,E,][D,,D,]/>[C,,C,]/ | [C,,C,]) z (A,2 | (G,)F,E,D, | C,)(G,,/>A,,/ B,,2- | %18
 [E,,B,,])G,,/>(G,,/- [C,,G,,]2) | C2 E,2- | E,F,G,F, | %21
 ([C,,C,][_B,,,_B,,][A,,,A,,][G,,,G,,]/>[F,,,F,,]/ | [F,,,F,,]4) | %23
 ([G,,,G,,][F,,,F,,][E,,,E,,][D,,,D,,]/>[C,,,C,,]/ | [C,,,C,,]2- [C,,,C,,]2) |] %25
V:4
 x4 | x4 | x4 | x2 B,,B,,, | x4 | C,D,E,F, | G,[I:staff -1]A[I:staff +1] D,2 | x4 | x4 | x4 | %10
 x2 B,,B,,, | x4 | C,D,E,F, | G,[I:staff -1]A[I:staff +1] D,2 | x4 | x4 | x4 | x2 B,,B,,, | x4 | %19
 C,2 _B,,2 | A,,2 G,,2 | x4 | x4 | x4 | x4 |] %25
V:5
 x4 | x4 | x4 | x4 | x4 | EFGD | E2 D2 | x4 | x4 | x4 | x4 | x4 | EFGD | E2 D2 | x4 | x4 | x4 | %17
 x4 | x4 | x4 | C2- C2 |[K:bass] z2 (C,D,/=E,/ | F,_E,D,PC,/>=B,,/) | (=B,,D,G,F, | E,2- E,) z |] %25

